src/assets/filled/Book1.svg

<svg width="24" height="24" viewBox="0 0 24 24"  xmlns="http://www.w3.org/2000/svg">
<path d="M22 4.85018V16.7402C22 17.7102 21.21 18.6002 20.24 18.7202L19.93 18.7602C18.29 18.9802 15.98 19.6602 14.12 20.4402C13.47 20.7102 12.75 20.2202 12.75 19.5102V5.60018C12.75 5.23018 12.96 4.89018 13.29 4.71018C15.12 3.72018 17.89 2.84018 19.77 2.68018H19.83C21.03 2.68018 22 3.65018 22 4.85018Z" />
<path d="M10.71 4.71018C8.87999 3.72018 6.10999 2.84018 4.22999 2.68018H4.15999C2.95999 2.68018 1.98999 3.65018 1.98999 4.85018V16.7402C1.98999 17.7102 2.77999 18.6002 3.74999 18.7202L4.05999 18.7602C5.69999 18.9802 8.00999 19.6602 9.86999 20.4402C10.52 20.7102 11.24 20.2202 11.24 19.5102V5.60018C11.24 5.22018 11.04 4.89018 10.71 4.71018ZM4.99999 7.74018H7.24999C7.65999 7.74018 7.99999 8.08018 7.99999 8.49018C7.99999 8.91018 7.65999 9.24018 7.24999 9.24018H4.99999C4.58999 9.24018 4.24999 8.91018 4.24999 8.49018C4.24999 8.08018 4.58999 7.74018 4.99999 7.74018ZM7.99999 12.2402H4.99999C4.58999 12.2402 4.24999 11.9102 4.24999 11.4902C4.24999 11.0802 4.58999 10.7402 4.99999 10.7402H7.99999C8.40999 10.7402 8.74999 11.0802 8.74999 11.4902C8.74999 11.9102 8.40999 12.2402 7.99999 12.2402Z" />
</svg>

<?xml version="1.0" encoding="UTF-8"?>
<svg width="24" height="24" viewBox="0 0 24 24" xmlns="http://www.w3.org/2000/svg">
 <path d="m22 4.8502v11.89c0 0.97-0.79 1.86-1.76 1.98l-0.31 0.04c-1.64 0.22-3.95 0.9-5.81 1.68-0.65 0.27-1.37-0.22-1.37-0.93v-13.91c0-0.37 0.21-0.71 0.54-0.89 1.83-0.99 4.6-1.87 6.48-2.03h0.06c1.2 0 2.17 0.97 2.17 2.17z"/>
 <path d="m10.71 4.7102c-1.83-0.99-4.6-1.87-6.48-2.03h-0.07c-1.2 0-2.17 0.97-2.17 2.17v11.89c0 0.97 0.79 1.86 1.76 1.98l0.31 0.04c1.64 0.22 3.95 0.9 5.81 1.68 0.65001 0.27 1.37-0.22 1.37-0.93v-13.91c0-0.38-0.2-0.71-0.53-0.89zm-5.71 3.03h2.25c0.41 0 0.75 0.34 0.75 0.75 0 0.42-0.34 0.75-0.75 0.75h-2.25c-0.41 0-0.75-0.33-0.75-0.75 0-0.41 0.34-0.75 0.75-0.75zm3 4.5h-3c-0.41 0-0.75-0.33-0.75-0.75 0-0.41 0.34-0.75 0.75-0.75h3c0.41 0 0.75 0.34 0.75 0.75 0 0.42-0.34 0.75-0.75 0.75z"/>
</svg>
